X:1134
T: Reel of Tulloch
M: C|
L: 1/8
S: Strathspey 
B: Keith Norman MacDonald - The Skye Collection (1887)
K: A Major
|: a/f/ | [S]
e2 Ac/d/ e>cA>a | e2 Ac/d/ d>B=G>f | e2 Ac/d/ e>Ac>A | BG G/G/G d>B =G :|
B |
c>A c/d/e cAAB | c>A c/d/e d>BG>B | c>A c/d/e c>Ac>A | BG G/G/G d>B=GB |
c>A c/d/e c<AAB | c>A c/d/e d<B=GB | cA c/d/e c<Ac<A | BG c/d/e d<B=GB [DS] ||
